X: 14072
T: PAT AND VICKI'S REEL
C: Bob McQuillen 3 Mar'10
B: Bob's Note Book 14 #72
%R: reel
%D:2010
Z: 2020 John Chambers <jc:trillian.mit.edu>
M: C
L: 1/8
K: G
DE \
| G2GE DEGA | B2GE DEGB | AGBd edge | dedB AGED |
| G2GE DEGA | GBde d2Bd | edeg edBG | AGAB G2 :|
|: GA \
| BGAG E2GE | DEGA BGED | BGAG E2GE | DEGB AGEG |
| BGBd e2de | gedB A2GA | B2dB ABGE | DEGA G2 :|
%%begintext align
%% For many years, Pat and
%% Vicki Marron have teamed up with Pen Fix and Debra
%% Shultz in running The Lady of the Lake Dance Camp. They
%% have been great mainstays in putting on the camp, and it
%% was such a joy for me when this tune came along. All
%% the best, and many thanks to you both for all your
%% hard work and great kindness.
%%endtext

%%sep 1 1 500

%%sep 1 1 500

